src/images/stack-php.svg

<svg xmlns="http://www.w3.org/2000/svg" width="179" height="179" fill="none" viewBox="0 0 179 179"><rect width="179" height="179" fill="#fff"/><path fill="#769FD1" fill-rule="evenodd" stroke="#fff" stroke-linecap="round" stroke-linejoin="round" stroke-width="1.14" d="M20.13 86.55C20.13 64.83 50.73 47.22 88.46 47.22C126.19 47.22 156.79 64.83 156.79 86.55C156.79 108.27 126.2 125.87 88.46 125.87C50.72 125.87 20.13 108.26 20.13 86.55Z" clip-rule="evenodd"/><path stroke="#35416B" stroke-linecap="round" stroke-linejoin="round" stroke-width="1.14" d="M88.3 47.22C88.3 47.22 112.9 46.52 129.94 55.14C146.98 63.76 153.47 70.99 156.49 81.69C159.35 91.8 153.97 103.45 134.1 115.69C123.1 122.42 95.35 126.77 95.35 126.77"/><path fill="#35416B" fill-rule="evenodd" stroke="#fff" stroke-linecap="round" stroke-linejoin="round" stroke-width=".8" d="M48.06 70.1599L43.87 110L51.49 110.69L52.59 99.1599C56.7317 99.6628 60.9256 99.538 65.03 98.7899C68.67 98.1099 74.72 92.0899 75.23 85.9799C75.64 81.0399 73.38 70.6799 68.57 69.7899C64.1 68.9999 48.06 70.1599 48.06 70.1599Z" clip-rule="evenodd"/><path fill="#35416B" fill-rule="evenodd" stroke="#fff" stroke-linecap="round" stroke-linejoin="round" stroke-width=".8" d="M110.18 68.5501L105.74 108.42L113.82 109.11L115 97.5801C119.399 98.0829 123.846 97.9583 128.21 97.2101C132.07 96.5301 138.49 90.5101 139.03 84.4001C139.47 79.4601 137.03 69.1001 131.97 68.2101C127.2 67.3801 110.18 68.5501 110.18 68.5501Z" clip-rule="evenodd"/><path fill="#35416B" fill-rule="evenodd" stroke="#fff" stroke-linecap="round" stroke-linejoin="round" stroke-width=".8" d="M81.52 58.5601L77.45 99.0701L84.8799 98.7601C84.8799 98.7601 86.8099 77.9001 87.6299 76.0701C88.0699 75.0701 97.8299 74.59 97.9099 75.8601C98.1099 79.1201 96.6899 99.2701 96.6899 99.2701H104.32C104.32 99.2701 105.73 78.7101 105.54 70.3701C105.44 65.8901 88.5399 67.92 88.5399 67.92L89.0499 58.6601L81.52 58.5601Z" clip-rule="evenodd"/><path fill="#769FD1" fill-rule="evenodd" stroke="#fff" stroke-linecap="round" stroke-linejoin="round" stroke-width="1.14" d="M55.77 78.14C55.77 78.14 65.67 76.49 66.68 78.78C67.69 81.07 67.68 86.1999 66.15 89.6899C64.62 93.1799 54.49 91.9999 54.49 91.9999L55.77 78.14Z" clip-rule="evenodd"/><path fill="#769FD1" fill-rule="evenodd" stroke="#fff" stroke-linecap="round" stroke-linejoin="round" stroke-width="1.14" d="M118.85 75.43C118.85 75.43 128.75 73.78 129.76 76.07C130.77 78.36 130.76 83.49 129.23 86.98C127.7 90.47 117.57 89.27 117.57 89.27L118.85 75.43Z" clip-rule="evenodd"/></svg>

<svg fill="none" viewBox="0 0 179 179"><path fill="#fff" d="M0 0h179v179H0z"/><path fill="#769FD1" fill-rule="evenodd" stroke="#fff" stroke-linecap="round" stroke-linejoin="round" stroke-width="1.14" d="M20.13 86.55c0-21.72 30.6-39.33 68.33-39.33s68.33 17.61 68.33 39.33-30.59 39.32-68.33 39.32c-37.74 0-68.33-17.61-68.33-39.32z" clip-rule="evenodd"/><path stroke="#35416B" stroke-linecap="round" stroke-linejoin="round" stroke-width="1.14" d="M88.3 47.22s24.6-.7 41.64 7.92 23.53 15.85 26.55 26.55c2.86 10.11-2.52 21.76-22.39 34-11 6.73-38.75 11.08-38.75 11.08"/><path fill="#35416B" fill-rule="evenodd" stroke="#fff" stroke-linecap="round" stroke-linejoin="round" stroke-width=".8" d="M48.06 70.16L43.87 110l7.62.69 1.1-11.53c4.142.503 8.336.378 12.44-.37 3.64-.68 9.69-6.7 10.2-12.81.41-4.94-1.85-15.3-6.66-16.19-4.47-.79-20.51.37-20.51.37zm62.12-1.61l-4.44 39.87 8.08.69L115 97.58a46.75 46.75 0 0013.21-.37c3.86-.68 10.28-6.7 10.82-12.81.44-4.94-2-15.3-7.06-16.19-4.77-.83-21.79.34-21.79.34zm-28.66-9.99l-4.07 40.51 7.43-.31s1.93-20.86 2.75-22.69c.44-1 10.2-1.48 10.28-.21.2 3.26-1.22 23.41-1.22 23.41h7.63s1.41-20.56 1.22-28.9c-.1-4.48-17-2.45-17-2.45l.51-9.26-7.53-.1z" clip-rule="evenodd"/><path fill="#769FD1" fill-rule="evenodd" stroke="#fff" stroke-linecap="round" stroke-linejoin="round" stroke-width="1.14" d="M55.77 78.14s9.9-1.65 10.91.64c1.01 2.29 1 7.42-.53 10.91S54.49 92 54.49 92l1.28-13.86zm63.08-2.71s9.9-1.65 10.91.64c1.01 2.29 1 7.42-.53 10.91s-11.66 2.29-11.66 2.29l1.28-13.84z" clip-rule="evenodd"/></svg>
